share/.local/share/icons/Papirus-Nordic/48x48/apps/retroarch.svg

<svg xmlns="http://www.w3.org/2000/svg" width="48" height="48" version="1">
 <rect fill="#e4e4e4" width="40" height="40" x="4" y="4" rx="2" ry="2"/>
 <path fill="#fff" opacity=".2" d="m6 4c-1.108 0-2 0.892-2 2v1c0-1.108 0.892-2 2-2h36c1.108 0 2 0.892 2 2v-1c0-1.108-0.892-2-2-2h-36z"/>
 <path opacity=".2" d="m6 45c-1.108 0-2-0.892-2-2v-1c0 1.108 0.892 2 2 2h36c1.108 0 2-0.892 2-2v1c0 1.108-0.892 2-2 2h-36z"/>
 <path style="fill:#565656" d="m 17,15 3,4 -6,0 -0.623047,3 L 10,22 11,18 9,18 7,26 9,26 12.623047,26 12,29 l 4,0 -3,4 4,0 3,-4 8,0 3,4 4,0 -3,-4 4,0 L 35.376953,26 41,26 39,18 37,18 38,22 34.623047,22 34,19 l -6,0 3,-4 -2,0 -3,4 -4,0 -3,-4 z"/>
 <path style="opacity:0.2" d="m 16,22 0,4 4,0 0,-4 -4,0 z m 12,0 0,4 4,0 0,-4 -4,0 z"/>
 <path style="fill:#ffffff" d="M 16 21 L 16 25 L 20 25 L 20 21 L 16 21 z M 28 21 L 28 25 L 32 25 L 32 21 L 28 21 z"/>
</svg>

<svg xmlns="http://www.w3.org/2000/svg" width="48" height="48" version="1">
 <rect style="opacity:0.2" width="40" height="40" x="4" y="5" rx="6" ry="6"/>
 <rect style="fill:#3f3f3f" width="40" height="40" x="4" y="4" rx="6" ry="6"/>
 <path style="opacity:0.2" d="m 17,16 3,4 h -6 l -0.623047,3 H 10 l 1,-4 H 9 l -2,8 h 2 3.623047 L 12,30 h 4 l -3,4 h 4 l 3,-4 h 8 l 3,4 h 4 l -3,-4 h 4 L 35.376953,27 H 41 l -2,-8 h -2 l 1,4 H 34.623047 L 34,20 h -6 l 3,-4 h -2 l -3,4 h -4 l -3,-4 z m -1,6 h 4 v 4 h -4 z m 12,0 h 4 v 4 h -4 z"/>
 <path style="fill:#ffffff" d="M 17 15 L 20 19 L 14 19 L 13.376953 22 L 10 22 L 11 18 L 9 18 L 7 26 L 9 26 L 12.623047 26 L 12 29 L 16 29 L 13 33 L 17 33 L 20 29 L 28 29 L 31 33 L 35 33 L 32 29 L 36 29 L 35.376953 26 L 41 26 L 39 18 L 37 18 L 38 22 L 34.623047 22 L 34 19 L 28 19 L 31 15 L 29 15 L 26 19 L 22 19 L 19 15 L 17 15 z M 16 21 L 20 21 L 20 25 L 16 25 L 16 21 z M 28 21 L 32 21 L 32 25 L 28 25 L 28 21 z"/>
 <path style="fill:#ffffff;opacity:0.1" d="M 10 4 C 6.676 4 4 6.676 4 10 L 4 11 C 4 7.676 6.676 5 10 5 L 38 5 C 41.324 5 44 7.676 44 11 L 44 10 C 44 6.676 41.324 4 38 4 L 10 4 z"/>
</svg>
